X:1
T:Title
%%score { ( 1 4 ) | ( 2 3 ) }
L:1/8
M:6/8
K:Db
V:1 treble nm="Grand Piano"
V:4 treble 
V:2 bass 
V:3 bass 
V:1
 z3 z2[Q:1/4=100] [FA] | FFF FED | [FA][FA][FA] [FA]2 [FA] | B=AB [Bd][_Ac][GB] | %4
[M:5/8] [FA]-[FA]- [FA]3 |[M:1/8] [FA] |[M:3/4] BB B[Bd] cB | [FA][FA] [FA] [Fd]2 [_FB] | %8
 [Ec]2 [Fd] [Ec]2 [DB] | [A,A]6 | [Fd]4 z2 | [FA]4 z2 | FF FF GA | [DB]6 | [Gc]4 z2 | %15
 [Fd]2 [Fd] [FA]2 B | c2 c c2 B | A6 | [Fd]4 z2 | [FA]4 z2 | FF FF GA | [GB]6 | BB B[Bd] [Ac][GB] | %23
 [FA][FA] [FA]B cd | [=Ge]3 A3 |[M:5/8] [Fd]-[Fd]- [Fd]3 |] %26
V:2
 z3 z2 [D,D] | z3 .A,3 | [D,D][D,D][D,D] [D,D]2 [D,D] | [G,DG][G,CG][G,DG] [G,B,][G,C][G,D] | %4
[M:5/8] [D,D]-[D,D]- [D,D]3 |[M:1/8] [D,D] |[M:3/4] [G,DG][G,DG] [G,DG]B,[K:treble] [CA][G,DG] | %7
 [D,D][D,D] [D,D] [D,A,]2 [D,A,] | [E,A,]2 [E,A,] [E,=G,]2 [E,G,] | z2 z G3 | %10
 [D,A,]D, D,B,[K:treble] [CA][G,DG] | [D,D]D, D, [D,A,D]3 | %12
 [D,A,D][D,A,D] [D,A,D]A,- [E,A,C][F,A,D] | G,2 G, G,3 | A,A, A,[K:treble][EG] [DG][A,EG] | %15
 [D,D]2 .[D,A,]2 z _F | [E,A,E]2 [E,A,E] [E,=G,E]2 [E,G,D] | z E, F,G, A,G, | %18
 [D,A,]D, D,B,[K:treble] [CA][G,DG] | [D,D]D, D, [D,A,D]3 | %20
 [D,A,D][D,A,D] [D,A,D][D,A,D] [E,A,C][F,A,D] | G,2 G, G,3 | [G,DG][G,DG] [G,DG][G,B,] [G,C][G,D] | %23
 [D,D][D,D] [D,D][G,DG] [G,CG][G,B,G] | [E,B,]3 [A,G]3 |[M:5/8] [D,A,]-[D,A,]- [D,A,]3 |] %26
V:3
 x6 | [D,A,D][D,A,D][D,A,D] [D,D]-[D,G,D][D,F,] | x6 | x6 |[M:5/8] x5 |[M:1/8] x | %6
[M:3/4] z2 z .G,3[K:treble] | x6 | x6 | A,,6 | z2 z .G,3[K:treble] | x6 | z2 z [D,D] z2 | x6 | %14
 z2 z[K:treble] .A,3 | z2 z [D,A,]3 | x6 | A,,6 | z2 z .G,3[K:treble] | x6 | x6 | x6 | x6 | x6 | %24
 x6 |[M:5/8] x5 |] %26
V:4
 x6 | x6 | x6 | x6 |[M:5/8] x5 |[M:1/8] x |[M:3/4] x6 | x6 | x6 | C4 z2 | z A, A,[Bd] cB | %11
 z D D F3 | x6 | x6 | EE Ec Bc | x6 | x6 | [A,C]C DE FE | z A, A,[Bd] cB | z D D F3 | x6 | %21
 z2 z D3 | x6 | x6 | x6 |[M:5/8] x5 |] %26

